img/guarantee.svg

<svg width="98" height="131" viewBox="0 0 98 131" fill="none" xmlns="http://www.w3.org/2000/svg">
<path d="M24.8789 92.418C22.5938 90.1328 23.6094 90.8945 18.5312 89.3711C15.9922 88.8633 13.9609 87.5938 11.9297 86.0703L0.503906 114.254C-0.765625 117.047 1.51953 120.094 4.3125 119.84L17.7695 119.332L26.9102 128.98C28.9414 131.266 32.4961 130.504 33.5117 127.965L46.9688 95.4648C44.1758 96.9883 41.1289 97.75 37.8281 97.75C33.0039 97.75 28.1797 95.9727 24.8789 92.418ZM97.2422 114.254L85.8164 86.0703C83.7852 87.5938 81.7539 88.8633 79.4688 89.3711C73.8828 90.8945 75.1523 90.1328 72.8672 92.418C69.5664 95.9727 64.7422 97.75 59.918 97.75C56.6172 97.75 53.5703 96.9883 50.7773 95.4648L64.2344 127.965C65.25 130.504 68.8047 131.266 70.8359 128.98L79.9766 119.332L93.4336 119.84C96.2266 120.094 98.5117 117.047 97.2422 114.254ZM67.0273 86.5781C70.8359 82.7695 71.3438 83.0234 76.6758 81.5C80.2305 80.7383 83.0234 77.9453 84.0391 74.1367C85.8164 67.0273 85.3086 67.7891 90.6406 62.7109C93.1797 59.918 94.1953 56.1094 93.1797 52.5547C91.4023 45.4453 91.4023 46.4609 93.1797 39.0977C94.1953 35.543 93.1797 31.7344 90.6406 29.1953C85.3086 23.8633 85.8164 24.625 84.0391 17.5156C83.0234 13.9609 80.2305 11.168 76.6758 10.1523C69.5664 8.12109 70.582 8.62891 65.25 3.29688C62.7109 0.757812 58.9023 -0.257812 55.3477 0.757812C48.4922 2.53516 49.2539 2.53516 42.3984 0.757812C38.8438 -0.257812 35.0352 0.757812 32.4961 3.29688C27.1641 8.62891 28.1797 8.12109 21.0703 10.1523C17.5156 11.168 14.7227 13.9609 13.707 17.5156C11.9297 24.625 12.4375 23.8633 7.10547 29.1953C4.56641 31.7344 3.55078 35.543 4.56641 39.0977C6.34375 46.4609 6.34375 45.4453 4.56641 52.5547C3.55078 56.1094 4.56641 59.918 7.10547 62.7109C12.4375 67.7891 11.9297 67.0273 13.707 74.1367C14.7227 77.9453 17.5156 80.7383 21.0703 81.5C26.6562 83.0234 27.1641 82.7695 30.9727 86.5781C34.2734 90.1328 39.3516 90.6406 43.4141 88.1016C44.9375 87.0859 46.9688 86.5781 48.7461 86.5781C50.7773 86.5781 52.8086 87.0859 54.332 88.1016C58.3945 90.6406 63.4727 90.1328 67.0273 86.5781ZM24.8789 44.9375C24.8789 31.4805 35.543 20.5625 49 20.5625C62.2031 20.5625 72.8672 31.4805 72.8672 44.9375C72.8672 58.3945 62.2031 69.3125 49 69.3125C35.543 69.3125 24.8789 58.3945 24.8789 44.9375Z" fill="#1F1915"/>
</svg>

<svg width="98" height="131" fill="none" xmlns="http://www.w3.org/2000/svg"><path d="M24.879 92.418c-2.285-2.285-1.27-1.524-6.348-3.047-2.539-.508-4.57-1.777-6.601-3.3L.504 114.253c-1.27 2.793 1.016 5.84 3.808 5.586l13.457-.508 9.141 9.648c2.031 2.286 5.586 1.524 6.602-1.015l13.457-32.5c-2.793 1.523-5.84 2.285-9.14 2.285-4.825 0-9.65-1.777-12.95-5.332zm72.363 21.836L85.816 86.07c-2.03 1.524-4.062 2.793-6.347 3.301-5.586 1.523-4.317.762-6.602 3.047-3.3 3.555-8.125 5.332-12.949 5.332-3.3 0-6.348-.762-9.14-2.285l13.456 32.5c1.016 2.539 4.57 3.301 6.602 1.015l9.14-9.648 13.458.508c2.793.254 5.078-2.793 3.808-5.586zM67.027 86.578c3.809-3.809 4.317-3.555 9.649-5.078 3.555-.762 6.347-3.555 7.363-7.363 1.777-7.11 1.27-6.348 6.602-11.426 2.539-2.793 3.554-6.602 2.539-10.156-1.778-7.11-1.778-6.094 0-13.457 1.015-3.555 0-7.364-2.54-9.903-5.331-5.332-4.824-4.57-6.6-11.68a10.74 10.74 0 00-7.364-7.363c-7.11-2.03-6.094-1.523-11.426-6.855-2.54-2.54-6.348-3.555-9.902-2.54-6.856 1.778-6.094 1.778-12.95 0-3.554-1.015-7.363 0-9.902 2.54-5.332 5.332-4.316 4.824-11.426 6.855a10.74 10.74 0 00-7.363 7.364c-1.777 7.109-1.27 6.347-6.602 11.68-2.539 2.538-3.554 6.347-2.539 9.902 1.778 7.363 1.778 6.347 0 13.457-1.015 3.554 0 7.363 2.54 10.156 5.332 5.078 4.824 4.316 6.601 11.426 1.016 3.808 3.809 6.601 7.363 7.363 5.586 1.523 6.094 1.27 9.903 5.078 3.3 3.555 8.379 4.063 12.441 1.524 1.523-1.016 3.555-1.524 5.332-1.524 2.031 0 4.063.508 5.586 1.524 4.063 2.539 9.14 2.03 12.695-1.524zM24.88 44.938c0-13.458 10.664-24.376 24.121-24.376 13.203 0 23.867 10.918 23.867 24.375 0 13.458-10.664 24.376-23.867 24.376-13.457 0-24.121-10.919-24.121-24.376z" fill="#1F1915"/></svg>
